!!!OTL: Geng nong ge
!!!ARE: Asia, China,ÿTaiwan, Hengchun
!! IV, 625
!!!SCT: C1698
!!!YEM: Copyright 1995, estate of Helmut Schaffrath.
**kern
*ICvox
*Ivox
*M2/4
*k[f#]
*G:
{8e
4e
16g
16a
=1
4.b
8a
=2
8g
8e
8g
8a
=3
2B}
=4
{8d
4B
16B
16d
=5
4.e
8g
=6
8a
8b
16g
16a
16g
16d
=7
2e}
=8
{8b
4b
16b
16dd
=9
4.ee
8dd
=10
8b
8a
8g
8a
=11
2b}
=12
{8d
4B
16B
16d
=13
4.e
8g
=14
8a
8b
16g
16a
16g
16d
=15
2e}
==
!!!AGN: Xiaodiao, Taidong diao. Nongmin shenghuo
!!!AMT: simple duple
!!!AIN: vox
!!!EED: Helmut Schaffrath
!!!EEV: 1.0
*-
